X: 10311
T: FRENET HA'.
O: Very ancient ballad air.
Q: "Slow."
%R: air, waltz
B: W. Hamilton "Universal Tune-Book" Vol. 1 Glasgow 1844 p.31 #1
S: http://imslp.org/wiki/Hamilton's_Universal_Tune-Book_(Various)
Z: 2016 John Chambers <jc:trillian.mit.edu>
M: 3/4
L: 1/8
K: Am
%%slurgraces yes
%%graceslurs yes
% - - - - - - - - - - - - - - - - - - - - - - - - -
(E^G) |\
A2 A2 (Bd) | d4 (e^f/g/) | (ed)(cB)(Ad) | {c}B4 (A^G) |\
A2 (AB) (c>d) | e4 (e^f/g/) | (ed) (cB) (A^G) | A4 |]
(e>^g) |\
a2 a2 (b>a) | g>^f e2 (ef/g/) | (ed) (cB) (Ad) | {c}B4 (A^G) |\
A2 (AB) (c>d) | e2 e2 (e^f/g/) | (ed) (cB) (A^G) | A4 |]
% - - - - - - - - - - - - - - - - - - - - - - - - -

%%sep 1 1 500
%%sep 1 1 500

